UI/Travel-Transport-Tracking/SVG/walking_solid_24px.svg

<svg width="24" height="24" viewBox="0 0 24 24" fill="none" xmlns="http://www.w3.org/2000/svg">
<path d="M11.5 6C11.8978 6 12.2794 5.84196 12.5607 5.56066C12.842 5.27936 13 4.89782 13 4.5V3.5C13 3.10218 12.842 2.72064 12.5607 2.43934C12.2794 2.15804 11.8978 2 11.5 2C11.1022 2 10.7206 2.15804 10.4393 2.43934C10.158 2.72064 10 3.10218 10 3.5V4.5C10 4.89782 10.158 5.27936 10.4393 5.56066C10.7206 5.84196 11.1022 6 11.5 6ZM14.41 11.41C14.5961 11.5972 14.8173 11.7457 15.061 11.8469C15.3047 11.9482 15.5661 12.0002 15.83 12H19V10H16L13 7H9V13L9.67 14L9 16L5 20L7 22L11 18L11.62 16.75L16 22L18 20L13 14V10L14.41 11.41ZM7 7L5.59 8.41C5.40283 8.59606 5.25434 8.81732 5.15308 9.06103C5.05182 9.30474 4.99979 9.56609 5 9.83V13H7V7Z" fill="#0F1621"/>
</svg>

<svg xmlns="http://www.w3.org/2000/svg" width="24" height="24" viewBox="0 0 24 24"><rect width="24" height="24" style="fill:none"/><path d="M11.5,6A1.5,1.5,0,0,0,13,4.5v-1a1.5,1.5,0,0,0-3,0v1A1.5,1.5,0,0,0,11.5,6Zm2.91,5.41a2,2,0,0,0,1.42.59H19V10H16L13,7H9v6l.67,1L9,16,5,20l2,2,4-4,.62-1.25L16,22l2-2-5-6V10ZM7,7,5.59,8.41A2,2,0,0,0,5,9.83V13H7Z"/></svg>
